X: 231
T:Magnificat quarti toni
N: Derived from Jos2004-Magnificat_Quarti_toni-Verse_6_Fecit_potentiam.krn
C: Josquin des Prez
%%abc-version 2.0
%%abcx-abcm2ps-target-version 5.9.1 (29 Sep 2008)
%%abc-creator hum2abc beta
%%abcx-conversion-date 2019/02/12 16:15:50
%%abc-edited-by Jesse Rodin
%%abc-edited-by Joel Chapman 2011/7/13; Victoria Chang 2011/08/08
%%abcx-initial-encoding-date 2011/08/08/
%%humdrum-veritas 4257188713
%%humdrum-veritas-data 2089718658
%%linebreak <none>
%%barnumbers 0
L: 1/4
M: 2/1
Q: 1/2=120
%%staves [1 2 3 4]
V: 1 clef=treble
V: 2 clef=treble-8
V: 3 clef=treble-8
V: 4 clef=bass
K: C
[V:1] z4 | 
[V:2] z4 | 
[V:3] e4 | 
[V:4] z4 | 
[V:1] z4 | 
[V:2] z4 | 
[V:3] e4 | 
[V:4] z4 | 
[V:1] z4 | 
[V:2] z4 | 
[V:3] d4 | 
[V:4] z4 | 
[V:1] z4 | 
[V:2] z4 | 
[V:3] e4 | 
[V:4] z4 | 
[V:1] A4 | 
[V:2] z4 | 
[V:3] f3e | 
[V:4] z4 | 
[V:1] A4 | 
[V:2] z4 | 
[V:3] d2c2 | 
[V:4] z4 | 
[V:1] ^G4 | 
[V:2] z4 | 
[V:3] BAB2 | 
[V:4] z4 | 
[V:1] A4 | 
[V:2] z4 | 
[V:3] A4 | 
[V:4] z4 | 
[V:1] B3A | 
[V:2] z4 | 
[V:3] z2e2- | 
[V:4] z4 | 
[V:1] G2^F2 | 
[V:2] z4 | 
[V:3] e2d2 | 
[V:4] z4 | 
[V:1] G4 | 
[V:2] z4 | 
[V:3] BAB2 | 
[V:4] z4 | 
[V:1] ^F2A2- | 
[V:2] z4 | 
[V:3] z2d2 | 
[V:4] z4 | 
[V:1] A2G2 | 
[V:2] z4 | 
[V:3] f2e2- | 
[V:4] z4 | 
[V:1] c4 | 
[V:2] z4 | 
[V:3] e2c2 | 
[V:4] z4 | 
[V:1] B2^G2 | 
[V:2] z4 | 
[V:3] d2e2 | 
[V:4] z4 | 
[V:1] A2c2 | 
[V:2] z4 | 
[V:3] f3e | 
[V:4] z4 | 
[V:1] B2A2- | 
[V:2] z4 | 
[V:3] d2^c2 | 
[V:4] z4 | 
[V:1] A2^G2 | 
[V:2] z4 | 
[V:3] d2e2 | 
[V:4] z4 | 
[V:1] A2B2 | 
[V:2] z4 | 
[V:3] A2e2- | 
[V:4] z4 | 
[V:1] c3B | 
[V:2] z4 | 
[V:3] e2c2 | 
[V:4] z4 | 
[V:1] A2^G2 | 
[V:2] z4 | 
[V:3] d2e2 | 
[V:4] z4 | 
[V:1] A2B2 | 
[V:2] z4 | 
[V:3] f2e2 | 
[V:4] z4 | 
[V:1] E2B2- | 
[V:2] z4 | 
[V:3] e4 | 
[V:4] z4 | 
[V:1] B2^G2 | 
[V:2] z4 | 
[V:3] d2e2 | 
[V:4] z4 | 
[V:1] A2B2 | 
[V:2] z4 | 
[V:3] f2e2 | 
[V:4] z4 | 
[V:1] c2B2 | 
[V:2] z4 | 
[V:3] z2e2 | 
[V:4] z4 | 
[V:1] z2B2 | 
[V:2] z4 | 
[V:3] d2e2 | 
[V:4] z4 | 
[V:1] A2B2 | 
[V:2] z4 | 
[V:3] f2e2- | 
[V:4] z4 | 
[V:1] c2B2- | 
[V:2] z4 | 
[V:3] e2d2 | 
[V:4] z4 | 
[V:1] BAA2- | 
[V:2] z4 | 
[V:3] c2dc | 
[V:4] z4 | 
[V:1] A2^G2 | 
[V:2] z4 | 
[V:3] BAB2 | 
[V:4] z4 | 
[V:1] A4 | 
[V:2] z4 | 
[V:3] A4 | 
[V:4] z4 | 
[V:1] A4 | 
[V:2] z4 | 
[V:3] z2d2- | 
[V:4] z4 | 
[V:1] A4 | 
[V:2] z4 | 
[V:3] d^cde | 
[V:4] z4 | 
[V:1] A4 | 
[V:2] z4 | 
[V:3] fedc | 
[V:4] z4 | 
[V:1] ^G4 | 
[V:2] z4 | 
[V:3] BAB2 | 
[V:4] z4 | 
[V:1] A4 | 
[V:2] z4 | 
[V:3] A2d2- | 
[V:4] z4 | 
[V:1] B4 | 
[V:2] z4 | 
[V:3] d^cde | 
[V:4] z4 | 
[V:1] A4 | 
[V:2] z4 | 
[V:3] fedc | 
[V:4] z4 | 
[V:1] G4 | 
[V:2] z4 | 
[V:3] BAB2 | 
[V:4] z4 | 
[V:1] F4 | 
[V:2] z4 | 
[V:3] z2A2- | 
[V:4] z4 | 
[V:1] E4 | 
[V:2] z4 | 
[V:3] A^GAB | 
[V:4] z4 | 
[V:1] z2E2- | 
[V:2] z4 | 
[V:3] cBAG | 
[V:4] z4 | 
[V:1] E2D2 | 
[V:2] z4 | 
[V:3] FEF2 | 
[V:4] z4 | 
[V:1] E2G2 | 
[V:2] z4 | 
[V:3] E4 | 
[V:4] z4 | 
[V:1] F2E2 | 
[V:2] z4 | 
[V:3] z4 | 
[V:4] z4 | 
[V:1] z2E2- | 
[V:2] z4 | 
[V:3] A4 | 
[V:4] z4 | 
[V:1] EDE^F | 
[V:2] z4 | 
[V:3] A4 | 
[V:4] z4 | 
[V:1] GFED | 
[V:2] z4 | 
[V:3] G4 | 
[V:4] z4 | 
[V:1] C2E2 | 
[V:2] z4 | 
[V:3] A4 | 
[V:4] z4 | 
[V:1] D2G2- | 
[V:2] z4 | 
[V:3] B4 | 
[V:4] z4 | 
[V:1] GEF2- | 
[V:2] z4 | 
[V:3] A4 | 
[V:4] z4 | 
[V:1] FEE2- | 
[V:2] z4 | 
[V:3] G4 | 
[V:4] z4 | 
[V:1] EED2 | 
[V:2] z4 | 
[V:3] F4 | 
[V:4] z4 | 
[V:1] E4 | 
[V:2] z4 | 
[V:3] E4 | 
[V:4] z4 | 
[V:1] E4 | 
[V:2] z4 | 
[V:3] z2A2- | 
[V:4] z4 | 
[V:1] E4 | 
[V:2] z4 | 
[V:3] A2^G2 | 
[V:4] z4 | 
[V:1] E4 | 
[V:2] z4 | 
[V:3] A2c2- | 
[V:4] z4 | 
[V:1] z2A2- | 
[V:2] z4 | 
[V:3] c2BA | 
[V:4] z4 | 
[V:1] A2^G2 | 
[V:2] z4 | 
[V:3] B4 | 
[V:4] z4 | 
[V:1] A2c2- | 
[V:2] z4 | 
[V:3] A3G | 
[V:4] z4 | 
[V:1] c2BA | 
[V:2] z4 | 
[V:3] E4 | 
[V:4] z4 | 
[V:1] B4 | 
[V:2] z4 | 
[V:3] z2e2 | 
[V:4] z4 | 
[V:1] A3G | 
[V:2] z4 | 
[V:3] f2d2- | 
[V:4] z4 | 
[V:1] E4 | 
[V:2] z4 | 
[V:3] d2^c2 | 
[V:4] z4 | 
[V:1] z2B2 | 
[V:2] z4 | 
[V:3] d2e2- | 
[V:4] z4 | 
[V:1] c2A2- | 
[V:2] z4 | 
[V:3] edc2 | 
[V:4] z4 | 
[V:1] A2^G2 | 
[V:2] z4 | 
[V:3] B4 | 
[V:4] z4 | 
[V:1] A3B | 
[V:2] z4 | 
[V:3] z2A2- | 
[V:4] z4 | 
[V:1] c2B2- | 
[V:2] z4 | 
[V:3] A2^G2 | 
[V:4] z4 | 
[V:1] BAA2- | 
[V:2] z4 | 
[V:3] A3B | 
[V:4] z4 | 
[V:1] A2G2 | 
[V:2] z4 | 
[V:3] c3B | 
[V:4] z4 | 
[V:1] F2E2- | 
[V:2] z4 | 
[V:3] A2G2 | 
[V:4] z4 | 
[V:1] EED2 | 
[V:2] z4 | 
[V:3] F4 | 
[V:4] z4 | 
[V:1] E4 |]  
[V:2] z4 |]  
[V:3] E4 |]  
[V:4] z4 |]  



